X: 12
T:Banks of the Dee, Longborough
M:6/8
L:1/8
A:Longborough
P:A(AB)5
K:G
P:A
|:G|DEF GAB|ced cBA|BGE Ddc|BcA G2:|
P:B
|:c|B2c dBd|ece dBG|GBd efg|GAG FED|
ece dBd|cAc BAG|BGE Ddc|BcA G2:|
